img/service-3.svg

<svg fill="none" height="160" viewBox="0 0 160 160" width="160" xmlns="http://www.w3.org/2000/svg" xmlns:xlink="http://www.w3.org/1999/xlink"><clipPath id="a"><path d="m0 .001953h160v160h-160z"/></clipPath><g clip-path="url(#a)"><path d="m0 0h160v160h-160z" fill="#fff500" transform="translate(0 .001953)"/><path d="m62.3596 42.4628.2586 40.9461c.0177 2.8003-2.2381 5.0848-5.0385 5.1025-3.0088.019-5.3722-2.5712-5.0783-5.5658l3.9994-40.7511c.1468-1.4964 1.4003-2.6401 2.9039-2.6496 1.6217-.0102 2.9447 1.2961 2.9549 2.9179z" fill="#0d06c1"/><path d="m58.9921 55.1753 3.37 18.0897c.5796 3.1115-1.3782 6.1321-4.4551 6.8736-3.7251.8976-7.3149-1.9086-7.3431-5.7402l-.1195-16.2427c-.0043-.5874-.0765-1.1724-.2153-1.7432l-4.7444-19.522c-.4655-1.9155.7122-3.8452 2.6286-4.307 1.8047-.4349 3.641.5881 4.221 2.3515z" fill="#241ed3"/><path d="m54.3963 53.5572 7.3544 16.7242c1.2796 2.9097.1124 6.3145-2.6832 7.8272-3.4085 1.8444-7.6507.0874-8.7569-3.6269l-4.7828-16.0593c-.1677-.563-.4-1.1049-.6922-1.6146l-12.4375-21.6948c-1.0072-1.7569-.3696-3.9986 1.4116-4.9624 1.5917-.8613 3.5753-.4086 4.6358 1.0579l15.1503 20.9512c.3155.4363.5838.9047.8005 1.3975z" fill="#403add"/><path d="m45.6605 55.8248 13.0526 11.4483c2.3536 2.0644 3.7574 5.0039 3.8834 8.132l.6269 15.5662c.1628 4.0407 1.9617 7.8416 4.9836 10.5287l2.9814 2.652c4.6886 4.17 5.904 11.012 2.9384 16.541-4.1381 7.716-14.3946 9.546-20.9458 3.738l-12.4296-11.021-21.8233-19.4697c-1.8589-1.6585-2.7896-4.121-2.4923-6.5944l1.304-10.85c.2003-1.6659 1.653-2.8944 3.329-2.8152 1.5069.0712 2.7595 1.1849 3.0065 2.6732l.7914 4.7685c.3634 2.1902 1.6642 4.113 3.562 5.2652l3.8676 2.3484c2.5584 1.5533 5.7951 1.4382 8.2365-.2931 4.4235-3.1367 5.9822-8.9813 3.7082-13.9042l-2.508-5.4295c-1.229-2.6608-4.4873-3.6779-7.0118-2.1889l-10.5207 6.2053c-1.3457.7937-3.075.4241-3.9787-.8503-.9072-1.2793-.6783-3.0411.5257-4.046l15.0068-12.5258c2.8812-2.4049 7.0846-2.3535 9.9062.1213z" fill="#5b57ca"/><path clip-rule="evenodd" d="m106.203 90.3262h-36.8433c-.2104 0-.3809-.1706-.3809-.381v-36.8436c0-.0001 0-.0001 0-.0001h.0001c0-20.5586 16.666-37.2246 37.2251-37.2246 20.558 0 37.224 16.666 37.224 37.2246s-16.666 37.2247-37.224 37.2247c-.001 0-.001 0-.001 0z" fill="#f55c5c" fill-rule="evenodd"/><path clip-rule="evenodd" d="m129.592 64.6414c.226-.8492-.551-1.6244-1.4-1.397l-5.377 1.4407c-.378.1013-.789.0083-1.041-.2908-.949-1.1248-1.349-2.6168-1.09-4.0653.069-.3851.379-.6713.757-.7725l5.314-1.424c.849-.2274 1.134-1.2873.514-1.91l-2.022-2.0323c-.289-.2901-.71-.4037-1.106-.2978l-7.021 1.8813c-.395.106-.704.4153-.809.8109l-.521 1.9646c-.35 1.3187-1.378 2.3496-2.696 2.7028l-31.8724 8.5401c-1.725.4622-2.7487 2.2353-2.2865 3.9603.4623 1.7251 2.2354 2.7488 3.9604 2.2866l31.8715-8.5401c1.318-.3531 2.724.0255 3.687.9927l1.434 1.4414c.289.2901.71.4037 1.106.2978l7.021-1.8813c.395-.106.704-.4152.809-.8109z" fill="#fff500" fill-rule="evenodd"/><rect fill="#f3e900" height="36.7709" rx="1.84778" transform="matrix(-.258819 -.965926 -.965926 .258819 116.239 65.5752)" width="3.69556"/><path d="m128.762 143.496v.191h.19v-.191zm-45.5239-22.857c.0001-12.519 10.1483-22.6667 22.6669-22.6667v-.381c-12.729 0-23.0478 10.3187-23.0478 23.0477zm22.6669 22.667c-12.5186 0-22.6669-10.149-22.6669-22.667h-.3809c0 12.729 10.3188 23.048 23.0478 23.048zm22.857 0h-22.857v.381h22.857zm-.191-22.667v22.857h.381v-22.857zm-22.666-22.6667c12.518 0 22.666 10.1477 22.666 22.6667h.381c0-12.729-10.318-23.0477-23.047-23.0477z" fill="#fdbbab"/><path d="m133.609 42.7421c0-2.5526-2.069-4.622-4.622-4.622h-21.39v9.244h21.39c2.553 0 4.622-2.0693 4.622-4.622z" fill="#fff500"/><rect fill="#f3ea00" height="20.2079" rx=".537443" transform="matrix(-.00000004 1 1 .00000004 109.532 40.0547)" width="1.07489"/><rect fill="#f3ea00" height="20.2079" rx=".537443" transform="matrix(-.00000004 1 1 .00000004 109.532 44.3545)" width="1.07489"/><rect fill="#f3ea00" height="20.2079" rx=".537443" transform="matrix(-.00000004 1 1 .00000004 109.532 42.2041)" width="1.07489"/><path d="m82.2409 40.9856c-.2314-.037-.4411.1418-.4411.3762v2.9761c0 .2344.2097.4132.4411.3761l4.9034-.7845c.0199-.0032.0401-.0048.0602-.0048h19.1025c.594 0 1.075-.4812 1.075-1.0749 0-.5936-.481-1.0749-1.075-1.0749h-19.1025c-.0201 0-.0403-.0016-.0602-.0047z" fill="#e6e6e6"/><path d="m82.2409 40.9856c-.2314-.037-.4411.1418-.4411.3762v2.9761c0 .2344.2097.4132.4411.3761l4.6126-.738c.1848-.0295.3207-.189.3207-.3761v-1.5001c0-.1872-.1359-.3466-.3207-.3762z" fill="#fff"/><rect fill="#f3ea00" height="1.9348" rx=".967398" transform="matrix(-.00000004 1 1 .00000004 106.307 36.8301)" width="11.8238"/><g fill="#f55c5c"><path clip-rule="evenodd" d="m115.358 121.804c-.131-.035-.271.003-.368.099l-4.564 4.564c-.096.096-.134.236-.098.368l1.67 6.234c.035.132.138.235.27.27l6.234 1.67c.132.036.272-.002.368-.098l4.564-4.564c.096-.096.134-.237.099-.368l-1.671-6.235c-.035-.131-.138-.234-.269-.269zm5.505 5.572c-.599-2.236-2.896-3.563-5.132-2.964-2.235.599-3.562 2.897-2.963 5.133.599 2.235 2.897 3.562 5.132 2.963 2.236-.599 3.562-2.897 2.963-5.132z" fill-rule="evenodd"/><path d="m98.143 118.961c-.1816.106-.415.045-.5213-.136l-2.5021-4.274c-.1063-.182-.0453-.415.1363-.521l12.1641-7.122c.181-.106.415-.045.521.136l2.502 4.274c.106.182.045.415-.136.521z"/><rect height="3.59293" rx=".380952" transform="matrix(-.50525076 -.86297258 .86297258 -.50525076 38.523141 270.761632)" width="13.4445" x="96.8765" y="124.338"/></g><rect fill="#fdbbab" height="3.59293" rx=".380952" transform="matrix(-.50525076 -.86297258 .86297258 -.50525076 38.468799 264.728477)" width="6.49045" x="95.1199" y="121.337"/></g></svg>

<svg width="160" height="160" viewBox="0 0 160 160" fill="none" xmlns="http://www.w3.org/2000/svg">
<g clip-path="url(#clip0_3396_4871)">
<rect width="160" height="160" transform="translate(0 0.00195312)" fill="#FFF500"/>
<path d="M62.3596 42.4628L62.6182 83.4089C62.6359 86.2092 60.3801 88.4937 57.5797 88.5114C54.5709 88.5304 52.2075 85.9402 52.5014 82.9456L56.5008 42.1945C56.6476 40.6981 57.9011 39.5544 59.4047 39.5449C61.0264 39.5347 62.3494 40.841 62.3596 42.4628Z" fill="#0D06C1"/>
<path d="M58.9921 55.1753L62.3621 73.265C62.9417 76.3765 60.9839 79.3971 57.907 80.1386C54.1819 81.0362 50.5921 78.23 50.5639 74.3984L50.4444 58.1557C50.4401 57.5683 50.3679 56.9833 50.2291 56.4125L45.4847 36.8905C45.0192 34.975 46.1969 33.0453 48.1133 32.5835C49.918 32.1486 51.7543 33.1716 52.3343 34.935L58.9921 55.1753Z" fill="#241ED3"/>
<path d="M54.3963 53.5572L61.7507 70.2814C63.0303 73.1911 61.8631 76.5959 59.0675 78.1086C55.659 79.953 51.4168 78.196 50.3106 74.4817L45.5278 58.4224C45.3601 57.8594 45.1278 57.3175 44.8356 56.8078L32.3981 35.113C31.3909 33.3561 32.0285 31.1144 33.8097 30.1506C35.4014 29.2893 37.385 29.742 38.4455 31.2085L53.5958 52.1597C53.9113 52.596 54.1796 53.0644 54.3963 53.5572Z" fill="#403ADD"/>
<path d="M45.6605 55.8248L58.7131 67.2731C61.0667 69.3375 62.4705 72.277 62.5965 75.4051L63.2234 90.9713C63.3862 95.012 65.1851 98.8129 68.207 101.5L71.1884 104.152C75.877 108.322 77.0924 115.164 74.1268 120.693C69.9887 128.409 59.7322 130.239 53.181 124.431L40.7514 113.41L18.9281 93.9403C17.0692 92.2818 16.1385 89.8193 16.4358 87.3459L17.7398 76.4959C17.9401 74.83 19.3928 73.6015 21.0688 73.6807C22.5757 73.7519 23.8283 74.8656 24.0753 76.3539L24.8667 81.1224C25.2301 83.3126 26.5309 85.2354 28.4287 86.3876L32.2963 88.736C34.8547 90.2893 38.0914 90.1742 40.5328 88.4429C44.9563 85.3062 46.515 79.4616 44.241 74.5387L41.733 69.1092C40.504 66.4484 37.2457 65.4313 34.7212 66.9203L24.2005 73.1256C22.8548 73.9193 21.1255 73.5497 20.2218 72.2753C19.3146 70.996 19.5435 69.2342 20.7475 68.2293L35.7543 55.7035C38.6355 53.2986 42.8389 53.35 45.6605 55.8248Z" fill="#5B57CA"/>
<path fill-rule="evenodd" clip-rule="evenodd" d="M106.203 90.3262L69.3597 90.3262C69.1493 90.3262 68.9788 90.1556 68.9788 89.9452L68.9788 53.1016C68.9788 53.1015 68.9788 53.1015 68.9788 53.1015C68.9788 53.1015 68.9789 53.1015 68.9789 53.1015C68.9789 32.5429 85.6449 15.8769 106.204 15.8769C126.762 15.8769 143.428 32.5429 143.428 53.1015C143.428 73.6601 126.762 90.3262 106.204 90.3262C106.203 90.3262 106.203 90.3262 106.203 90.3262Z" fill="#F55C5C"/>
<path fill-rule="evenodd" clip-rule="evenodd" d="M129.592 64.6414C129.818 63.7922 129.041 63.017 128.192 63.2444L122.815 64.6851C122.437 64.7864 122.026 64.6934 121.774 64.3943C120.825 63.2695 120.425 61.7775 120.684 60.329C120.753 59.9439 121.063 59.6577 121.441 59.5565L126.755 58.1325C127.604 57.9051 127.889 56.8452 127.269 56.2225L125.247 54.1902C124.958 53.9001 124.537 53.7865 124.141 53.8924L117.12 55.7737C116.725 55.8797 116.416 56.189 116.311 56.5846L115.79 58.5492C115.44 59.8679 114.412 60.8988 113.094 61.252L81.2216 69.7921C79.4966 70.2543 78.4729 72.0274 78.9351 73.7524C79.3974 75.4775 81.1705 76.5012 82.8955 76.039L114.767 67.4989C116.085 67.1458 117.491 67.5244 118.454 68.4916L119.888 69.933C120.177 70.2231 120.598 70.3367 120.994 70.2308L128.015 68.3495C128.41 68.2435 128.719 67.9343 128.824 67.5386L129.592 64.6414Z" fill="#FFF500"/>
<rect width="3.69556" height="36.7709" rx="1.84778" transform="matrix(-0.258819 -0.965926 -0.965926 0.258819 116.239 65.5752)" fill="#F3E900"/>
<path d="M128.762 143.496L128.762 143.687L128.952 143.687L128.952 143.496L128.762 143.496ZM83.2381 120.639C83.2382 108.12 93.3864 97.9723 105.905 97.9723L105.905 97.5913C93.176 97.5913 82.8572 107.91 82.8572 120.639L83.2381 120.639ZM105.905 143.306C93.3864 143.306 83.2381 133.157 83.2381 120.639L82.8572 120.639C82.8572 133.368 93.176 143.687 105.905 143.687L105.905 143.306ZM128.762 143.306L105.905 143.306L105.905 143.687L128.762 143.687L128.762 143.306ZM128.571 120.639L128.571 143.496L128.952 143.496L128.952 120.639L128.571 120.639ZM105.905 97.9723C118.423 97.9723 128.571 108.12 128.571 120.639L128.952 120.639C128.952 107.91 118.634 97.5913 105.905 97.5913L105.905 97.9723Z" fill="#FDBBAB"/>
<path d="M133.609 42.7421C133.609 40.1895 131.54 38.1201 128.987 38.1201L107.597 38.1201L107.597 47.3641L128.987 47.3641C131.54 47.3641 133.609 45.2948 133.609 42.7421Z" fill="#FFF500"/>
<rect width="1.07489" height="20.2079" rx="0.537443" transform="matrix(-3.85215e-08 1 1 3.85215e-08 109.532 40.0547)" fill="#F3EA00"/>
<rect width="1.07489" height="20.2079" rx="0.537443" transform="matrix(-3.85215e-08 1 1 3.85215e-08 109.532 44.3545)" fill="#F3EA00"/>
<rect width="1.07489" height="20.2079" rx="0.537443" transform="matrix(-3.85215e-08 1 1 3.85215e-08 109.532 42.2041)" fill="#F3EA00"/>
<path d="M82.2409 40.9856C82.0095 40.9486 81.7998 41.1274 81.7998 41.3618L81.7998 44.3379C81.7998 44.5723 82.0095 44.7511 82.2409 44.714L87.1443 43.9295C87.1642 43.9263 87.1844 43.9247 87.2045 43.9247L106.307 43.9247C106.901 43.9247 107.382 43.4435 107.382 42.8498C107.382 42.2562 106.901 41.7749 106.307 41.7749L87.2045 41.7749C87.1844 41.7749 87.1642 41.7733 87.1443 41.7702L82.2409 40.9856Z" fill="#E6E6E6"/>
<path d="M82.2409 40.9856C82.0095 40.9486 81.7998 41.1274 81.7998 41.3618L81.7998 44.3379C81.7998 44.5723 82.0095 44.7511 82.2409 44.714L86.8535 43.976C87.0383 43.9465 87.1742 43.787 87.1742 43.5999L87.1742 42.0998C87.1742 41.9126 87.0383 41.7532 86.8535 41.7236L82.2409 40.9856Z" fill="white"/>
<rect width="11.8238" height="1.9348" rx="0.967398" transform="matrix(-3.85215e-08 1 1 3.85215e-08 106.307 36.8301)" fill="#F3EA00"/>
<path fill-rule="evenodd" clip-rule="evenodd" d="M115.358 121.804C115.227 121.769 115.087 121.807 114.99 121.903L110.426 126.467C110.33 126.563 110.292 126.703 110.328 126.835L111.998 133.069C112.033 133.201 112.136 133.304 112.268 133.339L118.502 135.009C118.634 135.045 118.774 135.007 118.87 134.911L123.434 130.347C123.53 130.251 123.568 130.11 123.533 129.979L121.862 123.744C121.827 123.613 121.724 123.51 121.593 123.475L115.358 121.804ZM120.863 127.376C120.264 125.14 117.967 123.813 115.731 124.412C113.496 125.011 112.169 127.309 112.768 129.545C113.367 131.78 115.665 133.107 117.9 132.508C120.136 131.909 121.462 129.611 120.863 127.376Z" fill="#F55C5C"/>
<path d="M98.143 118.961C97.9614 119.067 97.728 119.006 97.6217 118.825L95.1196 114.551C95.0133 114.369 95.0743 114.136 95.2559 114.03L107.42 106.908C107.601 106.802 107.835 106.863 107.941 107.044L110.443 111.318C110.549 111.5 110.488 111.733 110.307 111.839L98.143 118.961Z" fill="#F55C5C"/>
<rect x="96.8765" y="124.338" width="13.4445" height="3.59293" rx="0.380952" transform="rotate(-120.348 96.8765 124.338)" fill="#F55C5C"/>
<rect x="95.1199" y="121.337" width="6.49045" height="3.59293" rx="0.380952" transform="rotate(-120.348 95.1199 121.337)" fill="#FDBBAB"/>
</g>
<defs>
<clipPath id="clip0_3396_4871">
<rect width="160" height="160" fill="white" transform="translate(0 0.00195312)"/>
</clipPath>
</defs>
</svg>
